cssgg/link.svg

<svg
  width="24"
  height="24"
  viewBox="0 0 24 24"
  fill="none"
  xmlns="http://www.w3.org/2000/svg"
>
  <path
    d="M14.8284 12L16.2426 13.4142L19.071 10.5858C20.6331 9.02365 20.6331 6.49099 19.071 4.9289C17.509 3.3668 14.9763 3.3668 13.4142 4.9289L10.5858 7.75732L12 9.17154L14.8284 6.34311C15.6095 5.56206 16.8758 5.56206 17.6568 6.34311C18.4379 7.12416 18.4379 8.39049 17.6568 9.17154L14.8284 12Z"
    fill="currentColor"
  />
  <path
    d="M12 14.8285L13.4142 16.2427L10.5858 19.0711C9.02372 20.6332 6.49106 20.6332 4.92896 19.0711C3.36686 17.509 3.36686 14.9764 4.92896 13.4143L7.75739 10.5858L9.1716 12L6.34317 14.8285C5.56212 15.6095 5.56212 16.8758 6.34317 17.6569C7.12422 18.4379 8.39055 18.4379 9.1716 17.6569L12 14.8285Z"
    fill="currentColor"
  />
  <path
    d="M14.8285 10.5857C15.219 10.1952 15.219 9.56199 14.8285 9.17147C14.4379 8.78094 13.8048 8.78094 13.4142 9.17147L9.1716 13.4141C8.78107 13.8046 8.78107 14.4378 9.1716 14.8283C9.56212 15.2188 10.1953 15.2188 10.5858 14.8283L14.8285 10.5857Z"
    fill="currentColor"
  />
</svg>

<svg viewBox="0 0 24 24" xmlns="http://www.w3.org/2000/svg"><g><path d="M14.82 12l1.41 1.41 2.82-2.83c1.56-1.57 1.56-4.1 0-5.66 -1.57-1.57-4.1-1.57-5.66 0l-2.83 2.82 1.41 1.41 2.82-2.83c.78-.79 2.04-.79 2.82 0 .78.78.78 2.04 0 2.82l-2.83 2.82Z"/><path d="M12 14.82l1.41 1.41 -2.83 2.82c-1.57 1.56-4.1 1.56-5.66 0 -1.57-1.57-1.57-4.1 0-5.66l2.82-2.83 1.41 1.41 -2.83 2.82c-.79.78-.79 2.04 0 2.82 .78.78 2.04.78 2.82 0l2.82-2.83Z"/><path d="M14.82 10.58c.39-.4.39-1.03 0-1.42 -.4-.4-1.03-.4-1.42 0L9.15 13.4c-.4.39-.4 1.02 0 1.41 .39.39 1.02.39 1.41 0l4.24-4.25Z"/></g></svg>
